X:5718
T:Gan Ainm
R:Reel
S:
H:
N:
D:Milltown Session
Z:Adrian Scahill
M:4/4
L:1/8
K:D
BEE2 BEdB|ADD2 FGAF|GBEF GBef|gfed (3Bcd ef|\
eBB2 E3B|ADD2 FGAF|GBEF GBec|dBAF BEE2:||\
eBB2 ef (3gfe|fedc dfaf|g3e (3Bcd gb|afde feef|\
(3gfe fd BcdB|ADD2 FGAF|GBEF GBec|dBAF BEE2:||


